storage/app/icons/phosphoricons/bold/sidebar-simple-bold.svg

<svg xmlns="http://www.w3.org/2000/svg" fill="currentColor" viewBox="0 0 256 256"><path d="M216 36H40a20 20 0 0 0-20 20v144a20 20 0 0 0 20 20h176a20 20 0 0 0 20-20V56a20 20 0 0 0-20-20M44 60h32v136H44Zm168 136H100V60h112Z"/></svg>

<svg xmlns="http://www.w3.org/2000/svg" viewBox="0 0 256 256" fill="currentColor"><path d="M216,36H40A20,20,0,0,0,20,56V200a20,20,0,0,0,20,20H216a20,20,0,0,0,20-20V56A20,20,0,0,0,216,36ZM44,60H76V196H44ZM212,196H100V60H212Z"/></svg>
